Origami/24x24/apps/giggle.svg

<svg width="24" height="24" version="1.1" viewBox="0 0 24 24" xmlns="http://www.w3.org/2000/svg" xmlns:xlink="http://www.w3.org/1999/xlink">
 <defs>
  <linearGradient id="linearGradient4532" x1="17" x2="10" y1="5" y2="18" gradientTransform="matrix(.5 0 0 .49986968 .49999998 .00364896)" gradientUnits="userSpaceOnUse">
   <stop style="stop-color:#000000" offset="0"/>
   <stop style="stop-color:#000000;stop-opacity:0" offset="1"/>
  </linearGradient>
 </defs>
 <g transform="matrix(-1,0,0,1,24.483998,-1028.4)">
  <g transform="translate(1,-1)">
   <path d="m15.239 1044.1s-1.7944-3.2139-1.9983-4.9957c-0.249-2.1761 0.99914-6.4945 0.99914-6.4945" style="fill:none;stroke-linecap:round;stroke-linejoin:round;stroke-width:2.4979999;stroke:#1f711f"/>
   <path d="m7.2455 1045.1s0.24365-5.2768 1.4987-7.4936c1.2197-2.1542 5.4953-4.9957 5.4953-4.9957" style="fill:none;stroke-linecap:round;stroke-linejoin:round;stroke-width:2.4979999;stroke:#248424"/>
   <path d="m14.216 1031.4a1.2491 1.2491 0 0 0 -0.6674 0.2176s-1.1118 0.7385-2.3808 1.7563c-1.2689 1.0178-2.7085 2.2481-3.5107 3.6648-0.81981 1.4479-1.1449 3.3673-1.3709 5.024-0.22604 1.6568-0.28882 3.0267-0.28882 3.0267a1.2493 1.2493 0 0 0 0.015612 0.2596c0.016131-0.3012 0.077457-1.353 0.2732-2.7877 0.22604-1.6567 0.55109-3.5761 1.3709-5.024 0.80213-1.4167 2.2417-2.647 3.5107-3.6648 1.2689-1.0178 2.3808-1.7564 2.3808-1.7564a1.2491 1.2491 0 0 1 0.6674 -0.2175 1.2491 1.2491 0 0 1 1.2606 0.9981 1.2491 1.2491 0 0 0 -1.2606 -1.4967z" style="fill-rule:evenodd;fill:#ffffff;opacity:.1"/>
   <path d="m15.477 1032.9a1.2491 1.2491 0 0 1 -0.54641 0.8001c1e-6 0-1.0255 0.683-2.1993 1.6245s-2.4823 2.2092-2.8999 2.9467c-0.43526 0.7688-0.85984 2.5954-1.0694 4.1313-0.20955 1.5359-0.26832 2.8042-0.26832 2.8042a1.2493 1.2493 0 0 1 -2.4803 0.1454c-0.0025 0.047-0.015612 0.24-0.015612 0.24a1.2493 1.2493 0 0 0 2.4959 0.1152s0.058772-1.2684 0.26832-2.8043 0.63414-3.3625 1.0694-4.1312c0.41758-0.7376 1.7261-2.0052 2.8999-2.9467s2.1993-1.6246 2.1993-1.6246a1.2491 1.2491 0 0 0 0.54641 -1.3006z" style="fill-rule:evenodd;opacity:.2"/>
   <circle cx="15.488" cy="1044.4" r="4.996" style="fill:#c72828"/>
   <path d="m15.488 1039.4a4.9957 4.9957 0 0 0 -4.9957 4.9957 4.9957 4.9957 0 0 0 0.01073 0.2927 4.9957 4.9957 0 0 1 4.985 -4.7888 4.9957 4.9957 0 0 1 4.985 4.703 4.9957 4.9957 0 0 0 0.01073 -0.2069 4.9957 4.9957 0 0 0 -4.9957 -4.9957z" style="fill:#ffffff;opacity:.2"/>
   <path d="m20.473 1044.6a4.9957 4.9957 0 0 1 -4.985 4.7889 4.9957 4.9957 0 0 1 -4.985 -4.703 4.9957 4.9957 0 0 0 -0.01073 0.2068 4.9957 4.9957 0 0 0 4.9957 4.9958 4.9957 4.9957 0 0 0 4.9957 -4.9958 4.9957 4.9957 0 0 0 -0.01073 -0.2927z" style="opacity:.2"/>
   <circle cx="6.996" cy="1046.4" r="4.996" style="fill:#ff3737"/>
   <path d="m6.9957 1041.4a4.9957 4.9957 0 0 0 -4.9957 5 4.9957 4.9957 0 0 0 0.010733 0.2927 4.9957 4.9957 0 0 1 4.985 -4.7888 4.9957 4.9957 0 0 1 4.985 4.703 4.9957 4.9957 0 0 0 0.01073 -0.2069 4.9957 4.9957 0 0 0 -4.9957 -4.9957z" style="fill:#ffffff;opacity:.2"/>
   <path d="m11.981 1046.6a4.9957 4.9957 0 0 1 -4.985 4.7889 4.9957 4.9957 0 0 1 -4.985 -4.703 4.9957 4.9957 0 0 0 -0.011 0.2 4.9957 4.9957 0 0 0 4.9957 4.9958 4.9957 4.9957 0 0 0 4.9957 -4.9958 4.9957 4.9957 0 0 0 -0.01073 -0.2927z" style="opacity:.2"/>
  </g>
 </g>
 <path d="m8.9344005 2.5031277-0.15993 0.060482s-1.1779305 0.4490787-2.536021 1.237967c-1.3580904 0.7888883-2.9088364 1.9136746-3.6610411 3.3226822-0.755813 1.4157659-0.6458636 3.2013611-0.3655526 4.6326151 0.2803112 1.431253 0.7437105 2.521869 0.7437105 2.521869l0.0937517 0.221257 0.2048357-0.133214s1.1744273-0.763903 2.5289308-1.866521c1.354503-1.102617 2.8941775-2.5378265 3.6405575-3.9359225 1.499976-2.8097095-0.401793-5.9172826-0.401793-5.9172826z" style="fill-rule:evenodd;opacity:.2"/>
 <path d="m8.9344005 2.0031277-0.15993 0.060482s-1.1779305 0.4490787-2.536021 1.237967c-1.3580904 0.7888883-2.9088364 1.9136746-3.6610411 3.3226822-0.755813 1.4157659-0.6458636 3.2013614-0.3655526 4.6326151 0.2803112 1.431253 0.7437105 2.521869 0.7437105 2.521869l0.0937517 0.221257 0.2048357-0.133214s1.1744273-0.763903 2.5289308-1.866521c1.354503-1.102617 2.8941775-2.5378265 3.6405575-3.9359225 1.499976-2.8097095-0.401793-5.9172826-0.401793-5.9172826z" style="fill-rule:evenodd;fill:#32b632"/>
 <path d="M 8.5652582,2.6219424 5.25,8.7513684" style="fill:none;opacity:.2;stroke-linecap:round;stroke-linejoin:round;stroke:url(#linearGradient4532)"/>
 <path d="m8.9335938 2.0039062l-0.1582032 0.0605469s-1.1790188 0.4474398-2.5371094 1.2363281c-1.3580904 0.7888883-2.9079515 1.9152112-3.6601562 3.3242188-0.4348087 0.8144705-0.5663937 1.7485356-0.5605469 2.6699219 0.0446151-0.7548902 0.2047238-1.503405 0.5605469-2.1699219 0.7522047-1.4090076 2.3020658-2.5353305 3.6601562-3.3242188 1.3580906-0.7888883 2.5371094-1.2363281 2.5371094-1.2363281l0.1582032-0.0605469 0.0878906 0.1425782s0.9274981 1.5544916 0.9589844 3.4511718c0.1559852-2.1202346-0.9589844-3.9511718-0.9589844-3.9511718l-0.0878906-0.1425782z" style="fill-rule:evenodd;fill:#ffffff;opacity:.2"/>
</svg>

<svg xmlns="http://www.w3.org/2000/svg" xmlns:xlink="http://www.w3.org/1999/xlink" width="24" height="24" version="1.1" viewBox="0 0 24 24">
 <defs>
  <linearGradient id="linearGradient4532" x1="17" x2="10" y1="5" y2="18" gradientTransform="matrix(0.5,0,0,0.49986968,0.49999998,0.00364896)" gradientUnits="userSpaceOnUse" xlink:href="#linearGradient4530"/>
  <linearGradient id="linearGradient4530">
   <stop style="stop-color:#000000" offset="0"/>
   <stop style="stop-color:#000000;stop-opacity:0" offset="1"/>
  </linearGradient>
 </defs>
 <g transform="matrix(-1,0,0,1,24.483998,-1028.4)">
  <g transform="translate(1,-1)">
   <path style="fill:none;stroke:#1f711f;stroke-width:2.49799991;stroke-linecap:round;stroke-linejoin:round" d="m 15.239,1044.1 c 0,0 -1.7944,-3.2139 -1.9983,-4.9957 -0.249,-2.1761 0.99914,-6.4945 0.99914,-6.4945"/>
   <path style="fill:none;stroke:#248424;stroke-width:2.49799991;stroke-linecap:round;stroke-linejoin:round" d="m 7.2455,1045.1 c 0,0 0.24365,-5.2768 1.4987,-7.4936 1.2197,-2.1542 5.4953,-4.9957 5.4953,-4.9957"/>
   <path style="opacity:0.1;fill:#ffffff;fill-rule:evenodd" d="m 14.216,1031.4 a 1.2491,1.2491 0 0 0 -0.6674,0.2176 c 0,0 -1.1118,0.7385 -2.3808,1.7563 -1.2689,1.0178 -2.7085,2.2481 -3.5107,3.6648 -0.81981,1.4479 -1.1449,3.3673 -1.3709,5.024 -0.22604,1.6568 -0.28882,3.0267 -0.28882,3.0267 a 1.2493,1.2493 0 0 0 0.015612,0.2596 c 0.016131,-0.3012 0.077457,-1.353 0.2732,-2.7877 0.22604,-1.6567 0.55109,-3.5761 1.3709,-5.024 0.80213,-1.4167 2.2417,-2.647 3.5107,-3.6648 1.2689,-1.0178 2.3808,-1.7564 2.3808,-1.7564 a 1.2491,1.2491 0 0 1 0.6674,-0.2175 1.2491,1.2491 0 0 1 1.2606,0.9981 1.2491,1.2491 0 0 0 -1.2606,-1.4967 z"/>
   <path style="opacity:0.2;fill-rule:evenodd" d="m 15.477,1032.9 a 1.2491,1.2491 0 0 1 -0.54641,0.8001 c 10e-7,0 -1.0255,0.683 -2.1993,1.6245 -1.1738,0.9415 -2.4823,2.2092 -2.8999,2.9467 -0.43526,0.7688 -0.85984,2.5954 -1.0694,4.1313 -0.20955,1.5359 -0.26832,2.8042 -0.26832,2.8042 a 1.2493,1.2493 0 0 1 -2.4803,0.1454 c -0.0025,0.047 -0.015612,0.24 -0.015612,0.24 a 1.2493,1.2493 0 0 0 2.4959,0.1152 c 0,0 0.058772,-1.2684 0.26832,-2.8043 0.209548,-1.5359 0.63414,-3.3625 1.0694,-4.1312 0.41758,-0.7376 1.7261,-2.0052 2.8999,-2.9467 1.1738,-0.9415 2.1993,-1.6246 2.1993,-1.6246 a 1.2491,1.2491 0 0 0 0.54641,-1.3006 z"/>
   <circle style="fill:#c72828" cx="15.488" cy="1044.4" r="4.996"/>
   <path style="opacity:0.2;fill:#ffffff" d="m 15.488,1039.4 a 4.9957,4.9957 0 0 0 -4.9957,4.9957 4.9957,4.9957 0 0 0 0.01073,0.2927 4.9957,4.9957 0 0 1 4.985,-4.7888 4.9957,4.9957 0 0 1 4.985,4.703 4.9957,4.9957 0 0 0 0.01073,-0.2069 4.9957,4.9957 0 0 0 -4.9957,-4.9957 z"/>
   <path style="opacity:0.2" d="m 20.473,1044.6 a 4.9957,4.9957 0 0 1 -4.985,4.7889 4.9957,4.9957 0 0 1 -4.985,-4.703 4.9957,4.9957 0 0 0 -0.01073,0.2068 4.9957,4.9957 0 0 0 4.9957,4.9958 4.9957,4.9957 0 0 0 4.9957,-4.9958 4.9957,4.9957 0 0 0 -0.01073,-0.2927 z"/>
   <circle style="fill:#ff3737" cx="6.996" cy="1046.4" r="4.996"/>
   <path style="opacity:0.2;fill:#ffffff" d="m 6.9957,1041.4 a 4.9957,4.9957 0 0 0 -4.9957,5 4.9957,4.9957 0 0 0 0.010733,0.2927 4.9957,4.9957 0 0 1 4.985,-4.7888 4.9957,4.9957 0 0 1 4.985,4.703 4.9957,4.9957 0 0 0 0.01073,-0.2069 4.9957,4.9957 0 0 0 -4.9957,-4.9957 z"/>
   <path style="opacity:0.2" d="m 11.981,1046.6 a 4.9957,4.9957 0 0 1 -4.985,4.7889 4.9957,4.9957 0 0 1 -4.985,-4.703 4.9957,4.9957 0 0 0 -0.011,0.2 4.9957,4.9957 0 0 0 4.9957,4.9958 4.9957,4.9957 0 0 0 4.9957,-4.9958 4.9957,4.9957 0 0 0 -0.01073,-0.2927 z"/>
  </g>
 </g>
 <path style="opacity:0.2;fill-rule:evenodd" d="m 8.9344005,2.5031277 -0.15993,0.060482 c 0,0 -1.1779305,0.4490787 -2.536021,1.237967 C 4.8803591,4.590465 3.3296131,5.7152513 2.5774084,7.1242589 1.8215954,8.5400248 1.9315448,10.32562 2.2118558,11.756874 2.492167,13.188127 2.9555663,14.278743 2.9555663,14.278743 L 3.049318,14.5 3.2541537,14.366786 c 0,0 1.1744273,-0.763903 2.5289308,-1.866521 C 7.1375875,11.397648 8.677262,9.9624385 9.423642,8.5643425 10.923618,5.754633 9.021849,2.6470599 9.021849,2.6470599 Z"/>
 <path style="fill:#32b632;fill-rule:evenodd" d="m 8.9344005,2.0031277 -0.15993,0.060482 c 0,0 -1.1779305,0.4490787 -2.536021,1.237967 C 4.8803591,4.090465 3.3296131,5.2152513 2.5774084,6.6242589 1.8215954,8.0400248 1.9315448,9.8256203 2.2118558,11.256874 2.492167,12.688127 2.9555663,13.778743 2.9555663,13.778743 L 3.049318,14 3.2541537,13.866786 c 0,0 1.1744273,-0.763903 2.5289308,-1.866521 C 7.1375875,10.897648 8.677262,9.4624385 9.423642,8.0643425 10.923618,5.254633 9.021849,2.1470599 9.021849,2.1470599 Z"/>
 <path style="opacity:0.2;fill:none;stroke:url(#linearGradient4532);stroke-linecap:round;stroke-linejoin:round" d="M 8.5652582,2.6219424 5.25,8.7513684"/>
 <path style="fill:#ffffff;fill-rule:evenodd;opacity:0.2" d="M 8.9335938 2.0039062 L 8.7753906 2.0644531 C 8.7753906 2.0644531 7.5963718 2.5118929 6.2382812 3.3007812 C 4.8801908 4.0896695 3.3303297 5.2159924 2.578125 6.625 C 2.1433163 7.4394705 2.0117313 8.3735356 2.0175781 9.2949219 C 2.0621932 8.5400317 2.2223019 7.7915169 2.578125 7.125 C 3.3303297 5.7159924 4.8801908 4.5896695 6.2382812 3.8007812 C 7.5963718 3.0118929 8.7753906 2.5644531 8.7753906 2.5644531 L 8.9335938 2.5039062 L 9.0214844 2.6464844 C 9.0214844 2.6464844 9.9489825 4.200976 9.9804688 6.0976562 C 10.136454 3.9774216 9.0214844 2.1464844 9.0214844 2.1464844 L 8.9335938 2.0039062 z"/>
</svg>
